X: 1
T: Greenwich Park
T: Come Sweet Maid
Z: 1997 by John Chambers <jc@trillian.mit.edu>
B: Karpeles & Schofield p.22(F), p.52(G); Barnes p.__
M: C|
L: 1/4
K: F
P: F:
|: "F"F2c2 | A3d | cAGF | "C7"GEDC | "F"F2c2 | A3d | cf"G7"dg | "C"e3z :|
|: "C7"e2g2 | c3d/e/ | "F"fcc/B/A | "Bb"d3c | "Gm"dB B/A/G/F/ | "C7"EGCc | BAG>F | "F"F3z :|
P: G:
K: G
|: "G"G2d2 | B3e | dBAG | "D7"AFED | "G"G2d2 | B3e | dg"A7"ea | "D"f3z :|
|: "D7"f2a2 | d3e/f/ | "G"gdd/c/B | "C"e3d | "Am"ec c/B/A/G/ | "D7"FADd | cBA>G | "G"G3z :|
